X:1
T:The Stately Southerner
M:6/8
L:1/8
K:Eb
 z4 z B,| E2 FG-F G| B2 d c2 E|C-B, C E2 F| E3- E z B| e2 e d- c3/2 d/2|\
 F2 G A2 B| c2 cd-c d| B3- B z B| e2 ed-c d| F2 G A2 B/2B/2| c2 cd-c d|\
 B3- B zB,/2-B,/2| E2 B B2 E| A2 c c2 E/2E/2|D-C D E2 F| E3- E z2|\


